packages/ui-solid/icons/leave_24.svg

<svg width="24" height="24" viewBox="0 0 24 24" fill="none" xmlns="http://www.w3.org/2000/svg">
<path fill-rule="evenodd" clip-rule="evenodd" d="M7.45411 3.32852L10.1096 3.32852C10.7105 3.32851 11.209 3.32851 11.6171 3.35788C12.0412 3.38841 12.4368 3.45402 12.8163 3.62103C13.6072 3.96899 14.2389 4.6007 14.5868 5.39153C14.7539 5.7711 14.8195 6.16662 14.85 6.59076C14.8794 6.99889 14.8794 7.49741 14.8793 8.09826V8.13059C14.8793 8.62764 14.4764 9.03059 13.9793 9.03059C13.4823 9.03059 13.0793 8.62764 13.0793 8.13059C13.0793 7.48923 13.0788 7.0558 13.0546 6.71999C13.0311 6.39289 12.9886 6.22846 12.9393 6.11645C12.7726 5.73774 12.4701 5.43523 12.0914 5.2686C11.9794 5.21932 11.815 5.17678 11.4879 5.15324C11.1521 5.12907 10.7186 5.12852 10.0773 5.12852H7.49035C6.77258 5.12852 6.28748 5.1292 5.91293 5.1593C5.54862 5.18857 5.36746 5.24131 5.24408 5.30296C4.92366 5.46306 4.66387 5.72285 4.50376 6.04328C4.44211 6.16666 4.38938 6.34782 4.3601 6.71212C4.33001 7.08667 4.32933 7.57178 4.32933 8.28954V15.3937C4.32933 16.1115 4.33001 16.5966 4.3601 16.9712C4.38938 17.3355 4.44211 17.5166 4.50376 17.64C4.66387 17.9604 4.92366 18.2202 5.24408 18.3803C5.36746 18.442 5.54862 18.4947 5.91293 18.524C6.28748 18.5541 6.77258 18.5548 7.49035 18.5548H9.91833C10.6361 18.5548 11.1212 18.5541 11.4957 18.524C11.8601 18.4947 12.0412 18.442 12.1646 18.3803C12.485 18.2202 12.7448 17.9604 12.9049 17.64C12.9666 17.5166 13.0193 17.3355 13.0486 16.9712C13.0787 16.5966 13.0793 16.1115 13.0793 15.3937V15.1161C13.0793 14.619 13.4823 14.2161 13.9793 14.2161C14.4764 14.2161 14.8793 14.619 14.8793 15.1161V15.43C14.8794 16.1023 14.8794 16.6601 14.8428 17.1153C14.8047 17.589 14.7228 18.0289 14.5151 18.4446C14.1808 19.1137 13.6383 19.6562 12.9692 19.9905C12.5535 20.1982 12.1136 20.2801 11.6399 20.3182C11.1847 20.3548 10.6269 20.3548 9.95457 20.3548H7.4541C6.78176 20.3548 6.22397 20.3548 5.76875 20.3182C5.29512 20.2801 4.85518 20.1982 4.43952 19.9905C3.77041 19.6562 3.22791 19.1137 2.89358 18.4446C2.68589 18.0289 2.60395 17.589 2.56589 17.1153C2.52931 16.6601 2.52932 16.1023 2.52933 15.43V8.2533C2.52932 7.58095 2.52931 7.02316 2.56589 6.56794C2.60395 6.09432 2.68589 5.65437 2.89358 5.23871C3.22791 4.56961 3.77041 4.02711 4.43952 3.69278C4.85518 3.48508 5.29512 3.40314 5.76875 3.36508C6.22397 3.3285 6.78176 3.32851 7.45411 3.32852ZM16.8575 7.93296C17.2077 7.58029 17.7776 7.57835 18.1302 7.92862L21.2073 10.9848C21.3774 11.1537 21.4731 11.3836 21.4731 11.6233C21.4731 11.8631 21.3774 12.093 21.2073 12.2619L18.1302 15.3181C17.7776 15.6683 17.2077 15.6664 16.8575 15.3137C16.5072 14.9611 16.5091 14.3912 16.8618 14.0409L18.3898 12.5233H8.70434C8.20728 12.5233 7.80434 12.1204 7.80434 11.6233C7.80434 11.1263 8.20728 10.7233 8.70434 10.7233H18.3898L16.8618 9.20575C16.5091 8.85548 16.5072 8.28563 16.8575 7.93296Z" fill="#007AFF"/>
</svg>

<svg xmlns="http://www.w3.org/2000/svg" width="24" height="24" fill="none"><path fill="currentColor" fill-rule="evenodd" d="M7.454 3.329h2.656c.6 0 1.099 0 1.507.029.424.03.82.096 1.2.263.79.348 1.422.98 1.77 1.77.167.38.232.776.263 1.2.03.408.03.906.03 1.507v.033a.9.9 0 1 1-1.8 0c0-.642-.001-1.075-.025-1.411-.024-.327-.066-.492-.116-.604a1.65 1.65 0 0 0-.848-.847c-.112-.05-.276-.092-.603-.116a22 22 0 0 0-1.41-.024H7.49c-.717 0-1.203 0-1.577.03-.364.03-.546.082-.669.144-.32.16-.58.42-.74.74-.062.124-.115.305-.144.67-.03.374-.03.859-.03 1.577v7.104c0 .717 0 1.203.03 1.577.03.364.082.546.144.669.16.32.42.58.74.74.123.062.305.115.669.144.374.03.86.03 1.577.03h2.428c.718 0 1.203 0 1.578-.03.364-.03.545-.082.669-.144.32-.16.58-.42.74-.74.062-.123.114-.305.144-.669.03-.374.03-.86.03-1.577v-.278a.9.9 0 0 1 1.8 0v.314c0 .672 0 1.23-.036 1.685-.038.474-.12.914-.328 1.33a3.45 3.45 0 0 1-1.546 1.546c-.415.207-.855.29-1.33.327-.454.037-1.012.037-1.684.037h-2.5c-.673 0-1.231 0-1.686-.037-.474-.038-.914-.12-1.33-.328a3.45 3.45 0 0 1-1.545-1.545c-.208-.416-.29-.856-.328-1.33-.037-.455-.037-1.013-.037-1.685V8.253c0-.672 0-1.23.037-1.685.038-.474.12-.914.328-1.33A3.45 3.45 0 0 1 4.44 3.694c.415-.208.855-.29 1.329-.328.455-.037 1.013-.036 1.685-.036m9.404 4.604a.9.9 0 0 1 1.272-.004l3.077 3.056a.9.9 0 0 1 0 1.277l-3.077 3.056a.9.9 0 1 1-1.268-1.277l1.528-1.518H8.704a.9.9 0 1 1 0-1.8h9.686l-1.528-1.517a.9.9 0 0 1-.004-1.273" clip-rule="evenodd"/></svg>
